!!!!SEGMENT: Ren1001b-Missa_Sine_nomine-Gloria.krn
!!!id: Ren1001b
!!!AGN: Mass; Gloria
!!!voices: 4
!!!COM: Renaldo
!!!OPR: Missa Sine nomine
!!!OTL: Gloria
**kern	**kern	**kern	**kern
*part4	*part3	*part2	*part1
*staff4	*staff3	*staff2	*staff1
*I"Bassus	*I"Tenor	*I"Altus	*I"Superius
*I'B	*I'T	*I'A	*I'S
*clefF4	*clefGv2	*clefG2	*clefG2
*k[b-]	*k[b-]	*k[b-]	*k[b-]
*F:	*F:	*F:	*F:
*M2/1	*M2/1	*M2/1	*M2/1
*met(C|)	*met(C|)	*met(C|)	*met(C|)
!!section: Et in terra
!!!OMD: Et in terra
=1	=1	=1	=1
0r	0r	0d	0r
=2	=2	=2	=2
1r	0r	1c	0r
[1G	.	[1d	.
=3	=3	=3	=3
1G]	0r	2d]	0r
.	.	2e	.
1F	.	1f	.
=4	=4	=4	=4
2G	0d	4B-y	0r
.	.	4c	.
1B-y	.	4d	.
.	.	4e	.
.	.	2f	.
4A	.	[2g	.
4G	.	.	.
=5	=5	=5	=5
1A	1c	2g]	1r
.	.	2f#i	.
[1G	2.d	1g	[1g
.	4c	.	.
=6	=6	=6	=6
2G]	2B-y	0d	1g]
4F	4A	.	.
4E	4G	.	.
1D	1A	.	1f
=7	=7	=7	=7
2r	2G	1d	1g
1G	1B-y	.	.
.	.	2r	2e
2F	[2A	[2d	2f
=8	=8	=8	=8
1E	2A]	2d]	1g
.	2G	2c	.
2.D	2A	2d	2.f
.	2d	[2f	.
4E	.	.	4g
=9	=9	=9	=9
2F	2c	4f]	2a
.	.	4e	.
2G	2B-y	4d	1g
.	.	4c	.
1D	1A	1d	.
.	.	.	2f#i
=10	=10	=10	=10
1G	2G	2d	2g
.	2G	2d	2b-y
1r	2G	2d	2b-y
.	2G	2g	2b-y
=11	=11	=11	=11
1r	2d	2g	2a
.	2d	2f	2a
2r	2G	[1g	2.g
2G	2B-y	.	.
.	.	.	8fL
.	.	.	8eJ
=12	=12	=12	=12
2G	2B-y	2g]	2d
2G	2B-y	2d	1g
2D	2A	1d	.
2D	2A	.	2f#i
=13	=13	=13	=13
0G	1G	2.B-y	0g
.	.	4c	.
.	1B-y	2d	.
.	.	2e	.
=14	=14	=14	=14
1F	1c	0f	0a
1D	1d	.	.
=15	=15	=15	=15
1G	0B-y	0d	1g
1G	.	.	1g
=16	=16	=16	=16
1D	1A	1d	1f
2r	2r	2r	2r
2D	2A	2d	2f
=17	=17	=17	=17
2D	2A	2d	2f
2D	2A	2d	2f
2G	2B-y	2d	2g
2G	2B-y	2d	2g
=18	=18	=18	=18
1F	1c	1f	1a
2r	2r	2r	2r
2F	2c	2f	2a
=19	=19	=19	=19
2F	2c	2f	2a
2F	2c	2f	2a
1B-y	1d	1f	1b-y
=20	=20	=20	=20
1F	1c	1f	1a
2r	2r	2r	2r
2B-y	2G	2d	2g
=21	=21	=21	=21
2B-y	2G	2d	2b-y
2G	2d	2g	2b-y
2A	2d	2g	2cc
2A	2c	2f	2cc
=22	=22	=22	=22
1G	1d	1g	1b-y
2r	2r	2r	2r
2F	2A	2c	2a
=23	=23	=23	=23
2F	2A	2c	2a
2D	2A	2d	2f
2E	2G	2d	2g
2E	2G	2c#i	2g
=24	=24	=24	=24
[0D	2A	[0d	2.f
.	2B-y	.	.
.	.	.	4g
.	2A	.	2a
.	[2B-y	.	2d
=25	=25	=25	=25
0D]	2B-]	0d]	2f
.	4A	.	1g
.	4G	.	.
.	1A	.	.
.	.	.	2f#i
=26	=26	=26	=26
0G	1G	0B-y	0g
.	2r	.	.
.	[2d	.	.
=27	=27	=27	=27
0r	2d]	0r	2r
.	2c	.	1a
.	2d	.	.
.	2e	.	2g
=28	=28	=28	=28
0r	2f	0r	2a
.	4e	.	2b-y
.	4d	.	.
.	2c	.	2cc
.	[2d	.	[2b-y
=29	=29	=29	=29
0r	4d]	0r	4b-]
.	4c	.	4a
.	2B-y	.	1g
.	1A	.	.
.	.	.	2f#i
=30	=30	=30	=30
2r	2.G	0r	1g
1B-y	.	.	.
.	4A	.	.
.	2B-y	.	1r
2A	2c	.	.
=31	=31	=31	=31
2B-y	2d	0r	1b-y
2c	2e	.	.
2.d	2.f	.	2.b-y
4c	4e	.	4a
=32	=32	=32	=32
2B-y	2d	1r	2g
2A	2c	.	2f
2G	2B-y	2r	2e
2F	2A	2A	2d
=33	=33	=33	=33
1E	1G	2B-y	2e
.	.	2c	1g
1D	1A	1d	.
.	.	.	2f#i
=34	=34	=34	=34
1G	1G	1d	1g
1r	1r	1r	1r
=35	=35	=35	=35
0D	0A	0d	0f
=36	=36	=36	=36
1D	1A	1d	1f
1D	1A	1d	1f
=37	=37	=37	=37
0G	0B-y	0d	0g
=38	=38	=38	=38
0F	0c	0f	0a
=39	=39	=39	=39
1D	1d	1f	1a
1D	2A	1f	1a
.	[2d	.	.
=40	=40	=40	=40
0A	2d]	0e	0a
.	4c#i	.	.
.	4BnXi	.	.
.	1c#i	.	.
=41	=41	=41	=41
1D	0d	2.d	1f
.	.	4c	.
2G	.	2B-y	2r
2D	.	2A	2f
=42	=42	=42	=42
1G	1r	1B-y	2g
.	.	.	1b-y
1F	2r	1c	.
.	2c	.	2a
=43	=43	=43	=43
1B-y	2d	1B-y	2b-y
.	1f	.	2a
1r	.	2r	1g
.	2e	2c	.
=44	=44	=44	=44
1r	1f	2d	2f
.	.	1f	2a
1c	1r	.	1g
.	.	2e	.
=45	=45	=45	=45
2.F	1d	1f	4f
.	.	.	4g
.	.	.	4a
4E	.	.	4b-y
1C	1c	1g	1cc
=46	=46	=46	=46
1F	2.d	0f	1a
.	8cL	.	.
.	8B-yJ	.	.
1F	1c	.	2r
.	.	.	2a
=47	=47	=47	=47
1G	1B-y	1d	1b-y
2.A	2r	1c	2.cc
.	[2A	.	.
4G	.	.	4b-y
=48	=48	=48	=48
2F	4A]	1r	2a
.	4B-y	.	.
2E	2c	.	2g
2F	1A	2c	1f
2D	.	[2d	.
=49	=49	=49	=49
1E	1G	2d]	2r
.	.	2c	1g
[1D	[1A	[1d	.
.	.	.	4f#i
.	.	.	4e
=50	=50	=50	=50
1D]	1A]	1d]	1f#i
2G	1G	2.d	1g
[2B-y	.	.	.
.	.	4e	.
=51	=51	=51	=51
2B-]	0r	2f	0r
4A	.	1g	.
4G	.	.	.
1A	.	.	.
.	.	2f#i	.
=52	=52	=52	=52
1G	1d	1g	1b-y
1F	1f	[1c	1a
=53	=53	=53	=53
2r	1e	1c]	2g
1A	.	.	1cc
.	2c	2r	.
4G	[2f	[2c	4b-y
4F	.	.	4a
=54	=54	=54	=54
1G	2f]	2c]	1b-y
.	2e	2B-y	.
1F	1f	[1c	1a
=55	=55	=55	=55
2E	0r	0c_	2g
1F	.	.	1a
4E	.	.	4g
4D	.	.	4f
=56	=56	=56	=56
2F	0r	1c]	2a
2G	.	.	2b-y
1A	.	4c	1cc
.	.	4d	.
.	.	4e	.
.	.	4f	.
=57	=57	=57	=57
0r	1r	2g	2b-y
.	.	2e	2cc
.	2r	2f	2a
.	[2F	[2a	[2cc
=58	=58	=58	=58
0r	4F]	4a]	4cc]
.	4G	4g	4b-y
.	4A	1f	2a
.	4B-y	.	.
.	1c	.	1g
.	.	2e	.
=59	=59	=59	=59
2r	1d	1.f	2.f
2D	.	.	.
.	.	.	4g
2F	2c	.	2a
2G	2B-y	2d	[2g
=60	=60	=60	=60
1D	1A	1d	2g]
.	.	.	2f#i
1G	[1G	[1d	1g
=61	=61	=61	=61
2r	1G]	1d]	2g
1G	.	.	2g
.	2r	1d	2b-y
2G	[2d	.	2b-y
=62	=62	=62	=62
2B-y	2d]	0r	1f
2B-y	2d	.	.
[1F	2f	.	2r
.	2f	.	[2a
=63	=63	=63	=63
1F]	0c	1r	2a]
.	.	.	2a
2A	.	2r	2cc
2A	.	[2e	2cc
=64	=64	=64	=64
2c	1r	2e]	2g
2c	.	2e	2g
1G	1d	2g	1b-y
.	.	2g	.
=65	=65	=65	=65
1G	1B-y	2d	1b-y
.	.	2g	.
2A	2c	2e	1a
2F	[2d	[2f	.
=66	=66	=66	=66
1G	2d]	2f]	2r
.	4c	2e	1b-y
.	4B-y	.	.
2F	2c	1f	.
2D	2d	.	[2a
=67	=67	=67	=67
2E-X	2B-y	1e-X	2a]
2C	2.c	.	1g
1E-i	.	2e-i	.
.	4B-y	.	.
.	4A	2c	4f
.	4G	.	4e
=68	=68	=68	=68
1D	1A	1d	1f
[1Gl	[1Gl	[1dl	1g
=69	=69	=69	=69
00G]	00G]	00d]	00g
=70||	=70||	=70||	=70||
*M2/1	*M2/1	*M2/1	*M2/1
*met(C)	*met(C)	*met(C)	*met(C)
!!section: Qui tollis
!!!OMD: Qui tollis
0F	0c	0f	0a
=71	=71	=71	=71
1F	1c	1f	1a
1F	1c	1f	1a
=72	=72	=72	=72
1B-y	1d	1f	1b-y
1G	1d	1g	1b-y
=73	=73	=73	=73
1A	1c	1e	1cc
1F	2r	[1f	1a
.	[2c	.	.
=74	=74	=74	=74
0G	2c]	2f]	0b-y
.	4B-y	4e	.
.	4A	4d	.
.	1B-y	1e	.
=75	=75	=75	=75
1F	0c	1f	1a
2r	.	1r	2g
2F	.	.	[2a
=76	=76	=76	=76
2F	2A	0r	2a]
2D	1d	.	4g
.	.	.	4f
2E	.	.	1g
2E	2c	.	.
=77	=77	=77	=77
1D	2d	0r	2.f
.	2B-y	.	.
.	.	.	4e
[1D	2B-y	.	4f
.	.	.	4d
.	2G	.	[2g
=78	=78	=78	=78
1D]	2A	2r	2g]
.	2A	2d	2f#i
1G	2G	2d	1g
.	[2g	2B-y	.
=79	=79	=79	=79
1A	2g]	2c	1r
.	2f	2c	.
1G	2.g	2.B-y	2r
.	.	.	2b-y
.	4f	4c	.
=80	=80	=80	=80
0r	2d	4d	2b-y
.	.	4G	.
.	2e	1g	2g
.	1d	.	2a
.	.	2f#i	2a
=81	=81	=81	=81
0r	2r	2g	2.g
.	2B-y	2d	.
.	.	.	8fL
.	.	.	8eJ
.	2B-y	2d	2f
.	2G	2d	[2g
=82	=82	=82	=82
1r	2A	2c	2g]
.	2A	2c	2f#i
2r	2G	2.d	1g
2B-y	2d	.	.
.	.	4e	.
=83	=83	=83	=83
2B-y	2d	2f	2r
2G	2d	1g	2b-y
2A	2c	.	2cc
2A	2c	2f	2cc
=84	=84	=84	=84
2G	2d	2g	2b-y
2F	2A	2.c	1a
2F	2A	.	.
.	.	4A	.
2D	2B-y	[2d	4g
.	.	.	4f
=85	=85	=85	=85
2E	2G	2d]	1g
2E	2G	2c#i	.
[1D	1A	[1d	2.f
.	.	.	4g
=86	=86	=86	=86
0D_	2r	1d]	2a
.	2B-y	.	2d
.	2B-y	[1d	2f
.	2G	.	[2g
=87	=87	=87	=87
1D]	2A	1d]	2g]
.	2A	.	2f#i
1G	1G	1d	1g
=88	=88	=88	=88
1r	1r	1r	1r
[1D	[1A	[1d	[1f
=89	=89	=89	=89
1D]	1A]	1d]	1f]
1D	1A	1d	1f
=90	=90	=90	=90
1D	1A	1d	1f
1G	1B-y	1d	1g
=91	=91	=91	=91
1D	1A	1d	1f
1G	1B-y	1d	1g
=92	=92	=92	=92
1C	1c	1e	1g
1D	1A	[1d	1f
=93	=93	=93	=93
0G	1r	1d]	1.b-y
.	[1d	1r	.
.	.	.	4a
.	.	.	4g
=94	=94	=94	=94
1D	1d]	0d	1f
[1F	1A	.	[1a
=95	=95	=95	=95
2F]	1.c	1A	1a]
4E	.	.	.
4D	.	.	.
[1C	.	[1c	1e
.	4B-y	.	.
.	4A	.	.
=96	=96	=96	=96
2C]	1.G	2c]	1.g
2D	.	4B-y	.
.	.	4A	.
2E	.	2G	.
2F	2A	2c	4f
.	.	.	4e
=97	=97	=97	=97
2G	2B-y	2B-y	2d
2E	2c	2G	2e
2D	2A	2.d	2f
2G	2B-y	.	2g
.	.	4e	.
=98	=98	=98	=98
2F	2c	1f	2a
2D	1d	.	2f
1G	.	4B-y	2g
.	.	4c	.
.	4c	4d	[2b-y
.	4B-y	4e	.
=99	=99	=99	=99
1F	1c	1f	2b-]
.	.	.	2a
[1B-y	[1B-y	[1f	[1b-y
=100	=100	=100	=100
1B-]	1B-]	1f]	1b-]
[1F	[1c	[1f	[1a
=101	=101	=101	=101
2F]	2c]	2f]	2a]
2F	2c	2f	2a
1F	1c	1f	1a
=102	=102	=102	=102
1G	1B-y	1d	1b-y
1C	1c	1e	1g
=103	=103	=103	=103
0D	1A	1d	0f
.	[1d	[1A	.
=104	=104	=104	=104
0E	2d]	2A]	1.g
.	4c#i	4G	.
.	4BnXi	4F	.
.	1c#i	1G	.
.	.	.	4f
.	.	.	4e
=105	=105	=105	=105
1D	1d	1A	1f
1G	2r	1G	1g
.	2d	.	.
=106	=106	=106	=106
0r	2.f	0r	2.a
.	4e	.	4g
.	2d	.	2b-y
.	2c	.	[2a
=107	=107	=107	=107
0r	2B-y	0r	2a]
.	4A	.	1g
.	4G	.	.
.	1A	.	.
.	.	.	2f#i
=108	=108	=108	=108
2r	1G	1d	1g
2B-y	.	.	.
2.d	1r	2.f	1r
4c	.	4e	.
=109	=109	=109	=109
2B-y	0r	2d	0r
2A	.	2c	.
2G	.	2B-y	.
2F	.	[2d	.
=110	=110	=110	=110
1E	1r	2d]	1r
.	.	2c#i	.
[1D	2r	2d	1a
.	2d	2A	.
=111	=111	=111	=111
1D]	2.f	1d	1a
.	4e	.	.
2.B-y	2d	1r	1f
.	2c	.	.
4A	.	.	.
=112	=112	=112	=112
2G	2B-y	2r	1.g
2F	2A	1d	.
1E	1G	.	.
.	.	2c	4f
.	.	.	4e
=113	=113	=113	=113
1D	1A	2d	1f
.	.	2d	.
[1G	1G	1B-y	[1g
=114	=114	=114	=114
1G]	2r	1B-y	1g]
.	2d	.	.
1r	2d	1r	2r
.	2d	.	2a
=115	=115	=115	=115
0r	2d	0r	2a
.	2d	.	2a
.	1f	.	2a
.	.	.	2a
=116	=116	=116	=116
1r	1e	0r	1cc
2r	1d	.	[1b-y
2G	.	.	.
=117	=117	=117	=117
2G	0B-y	2r	2b-]
2G	.	2d	2a
2G	.	2d	1g
2G	.	2d	.
=118	=118	=118	=118
1B-y	0r	2d	1f
.	.	2d	.
1A	.	1f	1r
=119	=119	=119	=119
1G	0r	1e	0r
2r	.	1d	.
2D	.	.	.
=120	=120	=120	=120
2D	1r	2d	0r
2D	.	4c	.
.	.	4B-y	.
1F	2r	2A	.
.	[2A	2d	.
=121	=121	=121	=121
1E	2A]	2d	1r
.	2G	2c#i	.
1D	1A	1d	1f
=122	=122	=122	=122
2r	2.B-y	1d	1g
2G	.	.	.
.	4c	.	.
2G	1d	2.B-y	[1b-y
2G	.	.	.
.	.	4c	.
=123	=123	=123	=123
2.G	2.G	1d	2b-]
.	.	.	4a
4A	4A	.	4g
2B-y	2B-y	1r	2f
2G	2G	.	2g
=124	=124	=124	=124
2B-y	2B-y	2d	2f
2G	2G	2e	1b-y
1F	1F	1f	.
.	.	.	2a
=125	=125	=125	=125
1B-y	2.f	1d	1b-y
.	4e	.	.
2r	4d	2r	[1b-y
.	4c	.	.
[2B-y	[2d	[2f	.
=126	=126	=126	=126
2B-]	2d]	2f]	2b-]
2F	2c	2f	2a
1G	1B-y	1d	1g
=127	=127	=127	=127
1D	1A	0d	1f
1D	2r	.	1f
.	2A	.	.
=128	=128	=128	=128
2G	2B-y	2.d	2g
2G	2B-y	.	2g
.	.	4e	.
2F	2c	2f	2a
2D	[2d	2f	2a
=129	=129	=129	=129
1G	2d]	4B-y	4g
.	.	4c	4f
.	4c	4d	1b-y
.	4B-y	4e	.
1F	1c	1f	.
.	.	.	2a
=130	=130	=130	=130
2r	1B-y	1d	1b-y
2G	.	.	.
2G	1r	2r	1r
2G	.	2d	.
=131	=131	=131	=131
1.B-y	0r	2d	0r
.	.	2d	.
.	.	[1f	.
4A	.	.	.
4G	.	.	.
=132	=132	=132	=132
2.F	0r	2f]	0r
.	.	4e	.
4G	.	4d	.
2A	.	2c	.
2F	.	[2d	.
=133	=133	=133	=133
1E	1r	2d]	1r
.	.	2c#i	.
1D	2r	1d	1a
.	2A	.	.
=134	=134	=134	=134
2r	2.d	2.B-y	2.b-y
2D	.	.	.
.	4c	4c	4a
2G	2B-y	4d	2g
.	.	4e	.
2D	2A	2f	2f
=135	=135	=135	=135
2G	2B-y	2d	2b-y
2A	2.c	2c	2.a
2F	.	4f	.
.	4B-y	4e	4g
2G	4A	4d	[2g
.	4G	4c	.
=136	=136	=136	=136
1D	1A	1d	2g]
.	.	.	2f#i
[1E	[1G	[1B-y	[1g
=137	=137	=137	=137
1E]	1G]	2B-]	1g]
.	.	2c	.
[1D	[1A	[1d	[1f
=138	=138	=138	=138
1D;]	1A;]	1d;]	1f;]
[1G	[1G	[1d	[1g
=139	=139	=139	=139
1G]	1G]	1d]	1g]
[1Gl	[1Gl	[1dl	[1gl
=140	=140	=140	=140
00G]	00G]	00d]	00g]
==	==	==	==
*-	*-	*-	*-
!!!system-decoration: [*]
!!!RDF**kern: i = editorial accidental
!!!RDF**kern: l = terminal long
!!!ENC: Benjamin Ory
!!!END: 2025/1/23
!!!EED: Benjamin Ory
!!!EEV: 2025/02/23
!!!YEC: Copyright 2025 Benjamin Ory, All Rights Reserved
!!!ONB: Translated from MusicXML on 2025/02/23